X:1
%%staffwidth     14.50cm
T: Grandfather's Clock
I:
C: S-G
C: Henry Clay Work
M: C|
Q: 1/2=100
Z:
R: square
K: G
"(D7)"D2| "G"G2FG "D7"A2GA| "G"B2cB "C"E2AA| "G"G2GG "D7"F2EF| "G"G4- Gz DD|
          "G"G2FG "D7"A2GA| "G"B2cB "C"E2AA| "G"G2GG "D7"FEF2| "G"G4- Gz GB|
          "G"d2B>A "(Em)"G2FG| "D7 (A7)"AGFE "G (D7)"D2GB| "(G)"d2B>A "A7"G2FG| "D7"A6 DD|
          "G"Gzz2 "D"Azz2| "G"B/B/B c>B "C"E2AA| "G/D"G4 "D7"F4| "G"G6 DD|
%%vskip .3cm
          "G"G2DD EDD2| B,z Dz B,z DD| \
          "Last time through: play this line twice"G2DD EDD2| B,z Dz B,z DD|
%%vskip .3cm
          "G"Gzz2 "D"Azz2| "G"B/B/B c>B "C"E2AA| "G/D"G4 "D7"F4| "G"G6|]
%
